svg/l/PR.svg

<svg width="32" height="24" viewBox="0 0 32 24" fill="none" xmlns="http://www.w3.org/2000/svg">
<g clip-path="url(#clip0_270_67517)">
<rect width="32" height="24" fill="white"/>
<path fill-rule="evenodd" clip-rule="evenodd" d="M0 0V24H32V0H0Z" fill="#EF0000"/>
<mask id="mask0_270_67517" style="mask-type:luminance" maskUnits="userSpaceOnUse" x="0" y="0" width="32" height="24">
<path fill-rule="evenodd" clip-rule="evenodd" d="M0 0V24H32V0H0Z" fill="white"/>
</mask>
<g mask="url(#mask0_270_67517)">
<path d="M0 8H-2V10V14V16H0H32H34V14V10V8H32H0Z" fill="#EF0000" stroke="#F7FCFF" stroke-width="4"/>
</g>
<path fill-rule="evenodd" clip-rule="evenodd" d="M0 0V24L18 12L0 0Z" fill="#3D58DB"/>
<mask id="mask1_270_67517" style="mask-type:luminance" maskUnits="userSpaceOnUse" x="0" y="0" width="18" height="24">
<path fill-rule="evenodd" clip-rule="evenodd" d="M0 0V24L18 12L0 0Z" fill="white"/>
</mask>
<g mask="url(#mask1_270_67517)">
<path fill-rule="evenodd" clip-rule="evenodd" d="M6.68777 14.2169L3.01584 16.1549L4.8035 12.2609L2.52551 10.1808L5.338 10.077L6.68777 6.5563L7.71781 10.077H10.5255L8.65412 12.2609L10.1427 16.1549L6.68777 14.2169Z" fill="#F7FCFF"/>
</g>
</g>
<defs>
<clipPath id="clip0_270_67517">
<rect width="32" height="24" fill="white"/>
</clipPath>
</defs>
</svg>

<svg width="32" height="24" fill="none" xmlns="http://www.w3.org/2000/svg">
  <mask id="a" maskUnits="userSpaceOnUse" x="0" y="0" width="32" height="24">
    <path fill="#fff" d="M0 0h32v24H0z"/>
  </mask>
  <g mask="url(#a)">
    <path fill-rule="evenodd" clip-rule="evenodd" d="M0 0v24h32V0H0z" fill="#EF0000"/>
    <mask id="b" maskUnits="userSpaceOnUse" x="0" y="0" width="32" height="24">
      <path fill-rule="evenodd" clip-rule="evenodd" d="M0 0v24h32V0H0z" fill="#fff"/>
    </mask>
    <g mask="url(#b)">
      <path d="M0 8h-2v8h36V8H0z" fill="#EF0000" stroke="#F7FCFF" stroke-width="4"/>
    </g>
    <path fill-rule="evenodd" clip-rule="evenodd" d="M0 0v24l18-12L0 0z" fill="#3D58DB"/>
    <mask id="c" maskUnits="userSpaceOnUse" x="0" y="0" width="18" height="24">
      <path fill-rule="evenodd" clip-rule="evenodd" d="M0 0v24l18-12L0 0z" fill="#fff"/>
    </mask>
    <g mask="url(#c)">
      <path fill-rule="evenodd" clip-rule="evenodd" d="M6.688 14.217l-3.672 1.938 1.787-3.894-2.277-2.08 2.812-.104 1.35-3.52 1.03 3.52h2.807l-1.87 2.184 1.488 3.894-3.455-1.938z" fill="#F7FCFF"/>
    </g>
  </g>
</svg>
